X:3
T:Levintine's Barrel
T:aka. Tullamore Piper
R:reel
O:19th century Franco American
B:Ryan's Mammoth
D:Cape Breton Fiddle and Piano Music, The Beaton Family of Mabou
Z:Paul Stewart Cranford (P.S.C.), <http://www.cranfordpub.com>
L:1/8
M:C|
Q:333
K:D
fe|dfAd f2 fe|dfba ^gafd|ceAc eAce|dfba ^gafe|
dfAd f2 fe|dfba ^gafd|ceAc eAce|d2 f2 d2:|
|:z c|B2 c2 d2 b2|ba^ga f2 ed|ceAc eAce|dfba ^gafd|
B2 c2 d2 b2|ba^ga f2 ed|ceAc eAce|d2 f2 d2:|
